packages/opendesign/src/icons/svgs/fill/done.svg

<?xml version="1.0" encoding="UTF-8"?>
<svg width="24px" height="24px" viewBox="0 0 24 24" version="1.1" xmlns="http://www.w3.org/2000/svg" xmlns:xlink="http://www.w3.org/1999/xlink">
    <title>done</title>
    <g id="done" stroke="none" stroke-width="1" fill="none" fill-rule="evenodd">
        <path d="M19.9498781,5.44890342 C20.2542403,5.12862942 20.7606081,5.11573039 21.0808821,5.42009263 C21.3720402,5.69678558 21.4091695,6.1404252 21.1848422,6.45942682 L21.1096928,6.55109658 L10.9767223,17.2130324 C10.1226959,18.0737496 8.75698739,18.1180505 7.85034805,17.3421474 L7.72405588,17.2257241 L2.43652614,11.9792972 C2.12289005,11.6680992 2.1209136,11.1615711 2.43211163,10.847935 C2.71501892,10.5628113 3.15935605,10.5352575 3.47344598,10.7664118 L3.56347386,10.8435205 L8.85100361,16.0899473 C9.09799203,16.3350158 9.48169268,16.3581218 9.75446837,16.1602317 L9.85146219,16.0752545 L19.9498781,5.44890342 Z" id="path1" fill="#000000" fill-rule="nonzero"></path>
    </g>
</svg>

<!-- Generated by IcoMoon.io -->
<svg version="1.1" xmlns="http://www.w3.org/2000/svg" width="24" height="24" viewBox="0 0 24 24">
<title>done</title>
<path d="M19.95 5.449c0.304-0.32 0.811-0.333 1.131-0.029 0.291 0.277 0.328 0.72 0.104 1.039l-0.075 0.092-10.133 10.662c-0.854 0.861-2.22 0.905-3.126 0.129l-0.126-0.116-5.288-5.246c-0.314-0.311-0.316-0.818-0.004-1.131 0.283-0.285 0.727-0.313 1.041-0.082l0.090 0.077 5.288 5.246c0.247 0.245 0.631 0.268 0.903 0.070l0.097-0.085 10.098-10.626z"></path>
</svg>
